src/view/frontend/web/svg/heroicons/solid/credit-card.svg

<svg viewBox="0 0 20 20" fill="currentColor" xmlns="http://www.w3.org/2000/svg">

<path d="M4 4C2.89543 4 2 4.89543 2 6V7H18V6C18 4.89543 17.1046 4 16 4H4Z" />
<path fill-rule="evenodd" clip-rule="evenodd" d="M18 9H2V14C2 15.1046 2.89543 16 4 16H16C17.1046 16 18 15.1046 18 14V9ZM4 13C4 12.4477 4.44772 12 5 12H6C6.55228 12 7 12.4477 7 13C7 13.5523 6.55228 14 6 14H5C4.44772 14 4 13.5523 4 13ZM9 12C8.44772 12 8 12.4477 8 13C8 13.5523 8.44772 14 9 14H10C10.5523 14 11 13.5523 11 13C11 12.4477 10.5523 12 10 12H9Z" />
</svg>

<svg xmlns="http://www.w3.org/2000/svg" fill="currentColor" viewBox="0 0 20 20"><path d="M4 4a2 2 0 0 0-2 2v1h16V6a2 2 0 0 0-2-2H4Z"/><path fill-rule="evenodd" d="M18 9H2v5a2 2 0 0 0 2 2h12a2 2 0 0 0 2-2V9ZM4 13a1 1 0 0 1 1-1h1a1 1 0 1 1 0 2H5a1 1 0 0 1-1-1Zm5-1a1 1 0 1 0 0 2h1a1 1 0 1 0 0-2H9Z" clip-rule="evenodd"/></svg>
